X:178
M:6/8
L:1/8
K:G
|: d>ed b2d | dcB c3 | cdc a2c | cBA B3 | G>AG B2G | d2B g2b | a2g "tr"fef | g3 G3 :|

